X: 21106
T: Kansas City
R: hornpipe
M: 4/4
K: Dmajor
F2 ~F2 FEFA|FE D2 D2 FA|AB ~B2 AFFA|FE D2 E2 AE|
EF ~F2 FEFA|FE D2 D2 FA|defa bfae|gf d2 d2 z2|
F2 ~F2 FEFA|FE D2 D2 BD|AB ~B2 AFFA|FE D2 E2 AG|
F2 ~F2 FEFA|FE D2 D2 FA|defa bfae|gf d2 d2||
de ~f2 a2 fa|ab ~b2 affa|=f^f ~f2 =f^ffa|fe d2 e2 ag|
f2 af gefd|ed B2 BAAF|ABde faba|fe d2 d2 A2|
de ~f2 a2 fa|ab~b2 affa|=f^f ~f2 affa|fe d2 e2 ag|
f2 af gefd|edB2 BAAF|ABde faba|fe d2 d2||

